SF_Symbols/suit.club.svg

<?xml version="1.0" encoding="UTF-8"?>
<svg xmlns="http://www.w3.org/2000/svg" xmlns:xlink="http://www.w3.org/1999/xlink" width="24" height="24" viewBox="0 0 24 24" version="1.1">
<g id="surface1">
<path style=" stroke:none;fill-rule:nonzero;fill:rgb(100%,100%,100%);fill-opacity:1;" d="M 0.820312 14.625 C 0.820312 15.640625 1.03125 16.527344 1.453125 17.285156 C 1.875 18.042969 2.464844 18.632812 3.222656 19.054688 C 3.980469 19.476562 4.867188 19.6875 5.882812 19.6875 C 6.65625 19.6875 7.398438 19.546875 8.109375 19.265625 C 8.820312 18.984375 9.367188 18.609375 9.75 18.140625 L 9.5625 17.707031 C 9.453125 18.277344 9.269531 18.796875 9.011719 19.265625 C 8.761719 19.726562 8.492188 20.136719 8.203125 20.496094 C 7.921875 20.847656 7.679688 21.144531 7.476562 21.386719 C 7.296875 21.613281 7.179688 21.847656 7.125 22.089844 C 7.078125 22.339844 7.09375 22.570312 7.171875 22.78125 C 7.25 22.992188 7.386719 23.160156 7.582031 23.285156 C 7.785156 23.417969 8.046875 23.484375 8.367188 23.484375 L 15.621094 23.484375 C 15.933594 23.484375 16.191406 23.417969 16.394531 23.285156 C 16.597656 23.160156 16.738281 22.992188 16.816406 22.78125 C 16.894531 22.570312 16.90625 22.339844 16.851562 22.089844 C 16.804688 21.847656 16.6875 21.613281 16.5 21.386719 C 16.296875 21.144531 16.050781 20.847656 15.761719 20.496094 C 15.480469 20.136719 15.214844 19.726562 14.964844 19.265625 C 14.714844 18.796875 14.535156 18.277344 14.425781 17.707031 L 14.238281 18.140625 C 14.621094 18.609375 15.167969 18.984375 15.878906 19.265625 C 16.589844 19.546875 17.332031 19.6875 18.105469 19.6875 C 19.121094 19.6875 20.007812 19.476562 20.765625 19.054688 C 21.523438 18.632812 22.113281 18.042969 22.535156 17.285156 C 22.957031 16.527344 23.167969 15.640625 23.167969 14.625 C 23.167969 13.6875 22.9375 12.835938 22.476562 12.070312 C 22.023438 11.304688 21.414062 10.695312 20.648438 10.242188 C 19.882812 9.78125 19.039062 9.550781 18.117188 9.550781 C 17.46875 9.550781 16.824219 9.671875 16.183594 9.914062 C 15.550781 10.148438 14.972656 10.480469 14.449219 10.910156 L 14.578125 11.027344 C 15.171875 10.636719 15.648438 10.191406 16.007812 9.691406 C 16.375 9.183594 16.640625 8.660156 16.804688 8.121094 C 16.96875 7.574219 17.050781 7.046875 17.050781 6.539062 C 17.050781 5.601562 16.820312 4.75 16.359375 3.984375 C 15.90625 3.21875 15.296875 2.609375 14.53125 2.15625 C 13.765625 1.695312 12.917969 1.464844 11.988281 1.464844 C 11.066406 1.464844 10.222656 1.695312 9.457031 2.15625 C 8.691406 2.609375 8.078125 3.21875 7.617188 3.984375 C 7.164062 4.75 6.9375 5.601562 6.9375 6.539062 C 6.9375 7.046875 7.019531 7.570312 7.183594 8.109375 C 7.347656 8.648438 7.609375 9.171875 7.96875 9.679688 C 8.328125 10.179688 8.800781 10.628906 9.386719 11.027344 L 9.492188 10.875 C 8.984375 10.460938 8.414062 10.136719 7.78125 9.902344 C 7.15625 9.667969 6.519531 9.550781 5.871094 9.550781 C 4.949219 9.550781 4.105469 9.78125 3.339844 10.242188 C 2.574219 10.695312 1.960938 11.304688 1.5 12.070312 C 1.046875 12.835938 0.820312 13.6875 0.820312 14.625 Z M 2.484375 14.660156 C 2.484375 14.035156 2.636719 13.464844 2.941406 12.949219 C 3.246094 12.433594 3.65625 12.023438 4.171875 11.71875 C 4.6875 11.414062 5.253906 11.261719 5.871094 11.261719 C 6.589844 11.261719 7.207031 11.351562 7.722656 11.53125 C 8.246094 11.710938 8.707031 11.882812 9.105469 12.046875 C 9.285156 12.109375 9.449219 12.160156 9.597656 12.199219 C 9.753906 12.238281 9.90625 12.257812 10.054688 12.257812 C 10.265625 12.257812 10.457031 12.191406 10.628906 12.058594 C 10.800781 11.917969 10.886719 11.710938 10.886719 11.4375 C 10.886719 11.289062 10.859375 11.140625 10.804688 10.992188 C 10.75 10.84375 10.667969 10.707031 10.558594 10.582031 C 10.207031 10.175781 9.882812 9.78125 9.585938 9.398438 C 9.289062 9.015625 9.050781 8.601562 8.871094 8.15625 C 8.691406 7.710938 8.601562 7.183594 8.601562 6.574219 C 8.601562 5.941406 8.753906 5.371094 9.058594 4.863281 C 9.363281 4.347656 9.769531 3.9375 10.277344 3.632812 C 10.792969 3.328125 11.363281 3.175781 11.988281 3.175781 C 12.621094 3.175781 13.191406 3.328125 13.699219 3.632812 C 14.214844 3.9375 14.625 4.347656 14.929688 4.863281 C 15.234375 5.371094 15.386719 5.941406 15.386719 6.574219 C 15.386719 7.183594 15.296875 7.710938 15.117188 8.15625 C 14.9375 8.601562 14.695312 9.015625 14.390625 9.398438 C 14.09375 9.78125 13.773438 10.175781 13.429688 10.582031 C 13.320312 10.707031 13.238281 10.84375 13.183594 10.992188 C 13.128906 11.140625 13.101562 11.289062 13.101562 11.4375 C 13.101562 11.710938 13.1875 11.917969 13.359375 12.058594 C 13.53125 12.191406 13.722656 12.257812 13.933594 12.257812 C 14.082031 12.257812 14.230469 12.238281 14.378906 12.199219 C 14.527344 12.160156 14.691406 12.109375 14.871094 12.046875 C 15.269531 11.890625 15.726562 11.722656 16.242188 11.542969 C 16.765625 11.355469 17.390625 11.261719 18.117188 11.261719 C 18.734375 11.261719 19.296875 11.414062 19.804688 11.71875 C 20.320312 12.023438 20.730469 12.433594 21.035156 12.949219 C 21.347656 13.464844 21.503906 14.035156 21.503906 14.660156 C 21.503906 15.667969 21.191406 16.480469 20.566406 17.097656 C 19.949219 17.714844 19.128906 18.023438 18.105469 18.023438 C 17.402344 18.023438 16.730469 17.902344 16.089844 17.660156 C 15.457031 17.410156 14.945312 17.109375 14.554688 16.757812 C 14.320312 16.546875 14.070312 16.441406 13.804688 16.441406 C 13.539062 16.433594 13.316406 16.519531 13.136719 16.699219 C 12.957031 16.878906 12.875 17.144531 12.890625 17.496094 C 12.929688 17.902344 13.035156 18.351562 13.207031 18.84375 C 13.386719 19.335938 13.601562 19.820312 13.851562 20.296875 C 14.109375 20.765625 14.375 21.167969 14.648438 21.503906 C 14.734375 21.605469 14.757812 21.691406 14.71875 21.761719 C 14.6875 21.832031 14.628906 21.867188 14.542969 21.867188 L 9.445312 21.867188 C 9.351562 21.867188 9.289062 21.832031 9.257812 21.761719 C 9.226562 21.691406 9.253906 21.605469 9.339844 21.503906 C 9.613281 21.167969 9.875 20.765625 10.125 20.296875 C 10.382812 19.820312 10.597656 19.335938 10.769531 18.84375 C 10.949219 18.351562 11.058594 17.902344 11.097656 17.496094 C 11.113281 17.144531 11.03125 16.878906 10.851562 16.699219 C 10.671875 16.519531 10.449219 16.433594 10.183594 16.441406 C 9.917969 16.441406 9.664062 16.546875 9.421875 16.757812 C 9.039062 17.109375 8.527344 17.410156 7.886719 17.660156 C 7.253906 17.902344 6.585938 18.023438 5.882812 18.023438 C 4.859375 18.023438 4.035156 17.714844 3.410156 17.097656 C 2.792969 16.480469 2.484375 15.667969 2.484375 14.660156 Z M 2.484375 14.660156 "/>
</g>
</svg>

<svg xmlns="http://www.w3.org/2000/svg" width="24" height="24"><path style="stroke:none;fill-rule:nonzero;fill:#fff;fill-opacity:1" d="M.82 14.625c0 1.016.211 1.902.633 2.66a4.483 4.483 0 0 0 1.77 1.77c.757.422 1.644.633 2.66.633.773 0 1.515-.141 2.226-.422.711-.282 1.258-.657 1.641-1.125l-.188-.434c-.109.57-.292 1.09-.55 1.559-.25.46-.52.87-.809 1.23-.281.352-.523.649-.726.89-.18.227-.297.462-.352.704-.047.25-.031.48.047.691.078.211.215.38.41.504.203.133.465.2.785.2h7.254c.313 0 .57-.067.774-.2a.972.972 0 0 0 .421-.504c.079-.21.09-.441.036-.691a1.537 1.537 0 0 0-.352-.703c-.203-.242-.45-.54-.738-.89a8.494 8.494 0 0 1-.797-1.231 5.508 5.508 0 0 1-.54-1.559l-.187.434c.383.468.93.843 1.64 1.125.712.28 1.454.422 2.227.422 1.016 0 1.903-.211 2.66-.633a4.483 4.483 0 0 0 1.77-1.77c.422-.758.633-1.644.633-2.66 0-.938-.23-1.79-.691-2.555a5.094 5.094 0 0 0-1.829-1.828c-.761-.46-1.64-.699-2.53-.691-.65 0-1.294.12-1.934.363a6.09 6.09 0 0 0-1.735.996l.13.117c.593-.39 1.07-.836 1.429-1.336a5.32 5.32 0 0 0 .797-1.57c.16-.512.242-1.047.246-1.582 0-.937-.23-1.789-.692-2.555a5.124 5.124 0 0 0-1.828-1.828c-.77-.46-1.648-.699-2.543-.691-.922 0-1.765.23-2.531.691a5.22 5.22 0 0 0-1.84 1.828c-.453.766-.68 1.618-.68 2.555A5.47 5.47 0 0 0 7.97 9.68c.36.5.832.95 1.418 1.348l.105-.152a5.898 5.898 0 0 0-1.71-.973 5.408 5.408 0 0 0-1.91-.351c-.923 0-1.767.23-2.532.691A5.22 5.22 0 0 0 1.5 12.07c-.453.766-.68 1.617-.68 2.555Zm1.664.035a3.296 3.296 0 0 1 .457-1.71 3.44 3.44 0 0 1 1.23-1.231 3.282 3.282 0 0 1 1.7-.457c.719 0 1.336.09 1.852.27.523.179.984.35 1.382.515.18.062.344.113.493.152.156.04.308.059.457.059.21 0 .402-.067.574-.2.172-.14.258-.347.258-.62a1.306 1.306 0 0 0-.328-.856c-.352-.406-.676-.8-.973-1.184a5.239 5.239 0 0 1-.715-1.242c-.18-.445-.27-.972-.27-1.582 0-.633.153-1.203.458-1.71a3.47 3.47 0 0 1 1.218-1.231 3.296 3.296 0 0 1 1.711-.457 3.25 3.25 0 0 1 1.711.457 3.44 3.44 0 0 1 1.23 1.23 3.25 3.25 0 0 1 .458 1.711c0 .61-.09 1.137-.27 1.582-.18.446-.422.86-.726 1.242-.297.383-.618.778-.961 1.184-.207.234-.325.54-.328.855 0 .274.085.481.257.622.172.132.364.199.575.199.148 0 .296-.02.445-.059.148-.039.312-.09.492-.152.453-.176.91-.344 1.371-.504.524-.188 1.149-.281 1.875-.281.617 0 1.18.152 1.688.457a3.44 3.44 0 0 1 1.23 1.23c.313.516.469 1.086.469 1.711 0 1.008-.313 1.82-.938 2.438-.617.617-1.437.925-2.46.925a5.644 5.644 0 0 1-2.016-.363c-.633-.25-1.145-.55-1.535-.902-.235-.211-.485-.317-.75-.317a.857.857 0 0 0-.668.258c-.18.18-.262.446-.246.797.039.406.144.856.316 1.348.18.492.395.976.645 1.453.257.469.523.871.796 1.207.086.101.11.187.07.258-.03.07-.09.105-.175.105H9.445c-.093 0-.156-.035-.187-.105-.031-.07-.004-.157.082-.258.273-.336.535-.738.785-1.207.258-.477.473-.961.645-1.453.18-.492.289-.942.328-1.348.015-.351-.067-.617-.246-.797a.857.857 0 0 0-.668-.258c-.266 0-.52.106-.762.317-.383.351-.895.652-1.535.902-.633.242-1.301.363-2.004.363-1.024 0-1.848-.308-2.473-.925-.617-.618-.926-1.43-.926-2.438Zm0 0"/></svg>
